icons/1_Primary/Nutstore.svg

<svg xmlns="http://www.w3.org/2000/svg" width="1024" height="1024" fill="none">
   <g clip-path="url(#a)">
      <path fill="#8E6F60" d="M512 1024c282.77 0 512-229.23 512-512S794.77 0 512 0 0 229.23 0 512s229.23 512 512 512Z"/>
      <path fill="#fff" d="M534.19 345.86a8.1 8.1 0 0 1 4.46-10.46 114.95 114.95 0 0 1 26.52-8c15.7-2.58 19.62-3.34 49.44-1.54 0 0 57.77-1.32 129.1 79.24a67.67 67.67 0 0 1 7.23 9.7c13.29 20 38.06 65.93 33.1 121.34a170.762 170.762 0 0 1-12 55.61c-4.23 10.82-11.66 25.23-17.69 31.22-4.88 4.79-10.65 8.41-16.37 3.67 0 0 7.82-20.83-3.59-52.25s-63-118.42-109.12-162.85c-43.27-41.8-61.48-66.18-91.08-65.68Zm-18.47 15.75S534 345 549.94 356a380.581 380.581 0 0 1 52.67 45.21 786.297 786.297 0 0 1 55.22 63.32c48.49 61.16 63.88 106.29 69 125.71 5.12 19.42 0 36.69-13.68 46.05s-38.79 49.4-144.91 55.71c-106.12 6.31-149.45-43.45-154.58-64.5 0 0-21.69-85.71 36.44-190.26.05-.24 27.44-49.92 65.62-75.63ZM728.4 375l17.69 18.86a49.635 49.635 0 0 1 49.64-20 81.302 81.302 0 0 1 14.55 4.29c3.67 1.65 6.56 2.27 6.28-2-.28-4.27-5.13-27.08-19.4-34-14.27-6.92-50.76 11.42-68.76 32.85ZM426.92 693.26h-92a127.728 127.728 0 0 1-108.701-194.365 127.731 127.731 0 0 1 69.261-54.765v-1a86.702 86.702 0 0 1 96.79-86.22 123.745 123.745 0 0 1 41.26-55.47 122.435 122.435 0 0 1 70.527-24.654 122.436 122.436 0 0 1 71.723 20.924 8.46 8.46 0 1 1-9.47 14 105.642 105.642 0 0 0-122.6 3.2A106.714 106.714 0 0 0 406 368.85a8.41 8.41 0 0 1-9.92 5.83 68.732 68.732 0 0 0-14-1.43 69.882 69.882 0 0 0-69.77 69.88 47.053 47.053 0 0 0 .28 6.28 8.41 8.41 0 0 1-6.08 9.11 110.769 110.769 0 0 0-44.431 190.154A110.766 110.766 0 0 0 335 676.27h91.91a8.412 8.412 0 0 1 5.947 14.357 8.412 8.412 0 0 1-5.947 2.463l.01.17Z"/>
   </g>
   <defs>
      <clipPath id="a">
         <path fill="#fff" d="M0 0h1024v1024H0z"/>
      </clipPath>
   </defs>
</svg>

<svg width="1024" height="1024" viewBox="0 0 1024 1024" fill="none" xmlns="http://www.w3.org/2000/svg">
<g clip-path="url(#clip0_2_2988)">
<path d="M512 1024C794.77 1024 1024 794.77 1024 512C1024 229.23 794.77 0 512 0C229.23 0 0 229.23 0 512C0 794.77 229.23 1024 512 1024Z" fill="#8E6F60"/>
<path d="M534.19 345.86C533.411 343.88 533.441 341.673 534.276 339.716C535.111 337.759 536.682 336.208 538.65 335.4C547.135 331.674 556.04 328.988 565.17 327.4C580.87 324.82 584.79 324.06 614.61 325.86C614.61 325.86 672.38 324.54 743.71 405.1C746.405 408.111 748.824 411.357 750.94 414.8C764.23 434.8 789 480.73 784.04 536.14C783.178 555.217 779.121 574.015 772.04 591.75C767.81 602.57 760.38 616.98 754.35 622.97C749.47 627.76 743.7 631.38 737.98 626.64C737.98 626.64 745.8 605.81 734.39 574.39C722.98 542.97 671.39 455.97 625.27 411.54C582 369.74 563.79 345.36 534.19 345.86ZM515.72 361.61C515.72 361.61 534 345 549.94 356C568.837 369.434 586.467 384.567 602.61 401.21C622.132 421.318 640.565 442.454 657.83 464.53C706.32 525.69 721.71 570.82 726.83 590.24C731.95 609.66 726.83 626.93 713.15 636.29C699.47 645.65 674.36 685.69 568.24 692C462.12 698.31 418.79 648.55 413.66 627.5C413.66 627.5 391.97 541.79 450.1 437.24C450.15 437 477.54 387.32 515.72 361.61ZM728.4 375L746.09 393.86C751.589 386.132 759.187 380.142 767.984 376.598C776.781 373.053 786.41 372.103 795.73 373.86C800.703 374.833 805.574 376.27 810.28 378.15C813.95 379.8 816.84 380.42 816.56 376.15C816.28 371.88 811.43 349.07 797.16 342.15C782.89 335.23 746.4 353.57 728.4 375ZM426.92 693.26H334.92C304.552 693.196 275.201 682.314 252.13 662.566C229.06 642.818 213.78 615.497 209.032 585.503C204.283 555.508 210.377 524.803 226.219 498.895C242.062 472.987 266.617 453.571 295.48 444.13V443.13C295.465 430.884 298.044 418.773 303.048 407.596C308.051 396.418 315.366 386.428 324.511 378.282C333.655 370.136 344.421 364.02 356.101 360.336C367.78 356.652 380.107 355.485 392.27 356.91C400.474 334.876 414.786 315.635 433.53 301.44C453.896 286.075 478.554 277.455 504.057 276.786C529.561 276.118 554.637 283.433 575.78 297.71C576.756 298.307 577.601 299.095 578.263 300.027C578.926 300.959 579.392 302.016 579.635 303.134C579.877 304.252 579.891 305.407 579.674 306.53C579.458 307.653 579.016 308.721 578.375 309.668C577.734 310.615 576.908 311.423 575.946 312.042C574.984 312.661 573.907 313.078 572.779 313.269C571.651 313.46 570.497 313.42 569.385 313.152C568.273 312.884 567.227 312.394 566.31 311.71C548.082 299.42 526.474 293.124 504.498 293.697C482.522 294.271 461.272 301.686 443.71 314.91C425.771 328.468 412.573 347.346 406 368.85C405.397 370.9 404.036 372.644 402.193 373.727C400.35 374.81 398.165 375.151 396.08 374.68C391.475 373.726 386.783 373.246 382.08 373.25C363.566 373.279 345.82 380.654 332.738 393.756C319.657 406.858 312.31 424.616 312.31 443.13C312.263 445.227 312.357 447.325 312.59 449.41C312.832 451.404 312.351 453.419 311.236 455.09C310.121 456.761 308.444 457.978 306.51 458.52C280.58 465.483 258.062 481.626 243.143 503.948C228.224 526.269 221.92 553.249 225.403 579.871C228.886 606.492 241.919 630.942 262.079 648.674C282.238 666.406 308.152 676.213 335 676.27H426.91C429.14 676.27 431.28 677.156 432.857 678.733C434.434 680.31 435.32 682.45 435.32 684.68C435.32 686.91 434.434 689.05 432.857 690.627C431.28 692.204 429.14 693.09 426.91 693.09L426.92 693.26Z" fill="white"/>
</g>
<defs>
<clipPath id="clip0_2_2988">
<rect width="1024" height="1024" fill="white"/>
</clipPath>
</defs>
</svg>
